X: 22
T: Over the Waterfall
C: R-9
C: Old-Time
M: C|
Z: Transcribed to abc by Mary Lou Knack
R: reel
K: D
de| "D"f2a2 "A"gfe2| "D"dedB A2de| f2a2 "A"gfe2| "D"d6 de|
    "D"f2a2 "A"gfe2| "D"dedB A2AB| "C"=c3d B2A2| "G"G6 :|
|:\
FG| "D"A2AA "G"B2B2| "D"ABAG F2FG| A2d2 "A7"cde2| "D"d6FG|
    "D"A2AA "G"B2B2| "D"ABAG F2FG| A2AA "A7"GFE2| "D"D6 :|
%%text 12/23/98
% ---------- page 12 ----------
